X: 249
T: Lady C: Campbell's Reel
%%VWML:Prestons1794-3056d-p106-0
F:http://www.vwml.org/record/Prestons1794/3056d/p106
Z: 2014 John Chambers <jc:trillian.mit.edu>
B: Preston "Twenty four Country Dances for the Year 1794" p.105 #1
F: http://www.vwml.org/browse/browse-collections-dance-tune-books/browse-prestons1794# 2014-8-10
M: C|
L: 1/8
K: Edor
d |\
BEB>A BE Be | dB AF DEFA |\
BEB>A BE Be | dB AF E/E/E E :: f |\
gbeb gebe | fada fdaf |
gbeb gebg | dB AF E/E/E Ef |\
gbeb gebe | fada fdaf |\
afge fdec | (d/c/B/A/) dF E/E/E E :|
% - - - - - - - - - - - - - - - - - - - - - - - - -
%%begintext align
%% Cast off 2 Cu. up again .| Cross over 2 Cu.s
%% lead up the middle cast off 1 Cu: :| Turn 
%% contrary corners :|. Lead outsides :|:
%%endtext
% - - - - - - - - - - - - - - - - - - - - - - - - -
T: Brighton Review
%R: march, reel
Z: 2014 John Chambers <jc:trillian.mit.edu>
B: Preston "Twenty four Country Dances for the Year 1794" p.105 #2
F: http://www.vwml.org/browse/browse-collections-dance-tune-books/browse-prestons1794# 2014-8-10
M: 2/4
L: 1/8
K: A
|:\
eeec | d3B | cccA | BGE2 |\
eeec | d3B | cABG | A4 :|
|:\
B>G (3EGE | B>G (3EGE | cAec | c2B2 |\
Affg | affd | cB AG | A2 A2 :|
% - - - - - - - - - - - - - - - - - - - - - - - - -
%%begintext align
%% The 1st & 2d Ladies take hands & lead
%% round their Part.rs .| The 1st & 2d Gent.n
%% do the same :| Lead down the middle
%% up again :|. Allemande :|:
%%endtext
% - - - - - - - - - - - - - - - - - - - - - - - - -
